DodgerBlue Flag Waving.svg

<?xml version="1.0" encoding="UTF-8" standalone="no"?>
<!-- Created with Inkscape (http://www.inkscape.org/) -->
<svg
   xmlns:dc="http://purl.org/dc/elements/1.1/"
   xmlns:cc="http://creativecommons.org/ns#"
   xmlns:rdf="http://www.w3.org/1999/02/22-rdf-syntax-ns#"
   xmlns:svg="http://www.w3.org/2000/svg"
   xmlns="http://www.w3.org/2000/svg"
   xmlns:xlink="http://www.w3.org/1999/xlink"
   xmlns:sodipodi="http://sodipodi.sourceforge.net/DTD/sodipodi-0.dtd"
   xmlns:inkscape="http://www.inkscape.org/namespaces/inkscape"
   version="1.0"
   width="249"
   height="268"
   id="svg2"
   sodipodi:version="0.32"
   inkscape:version="0.46"
   sodipodi:docname="BBB.svg"
   inkscape:output_extension="org.inkscape.output.svg.inkscape">
  <metadata
     id="metadata30">
    <rdf:RDF>
      <cc:Work
         rdf:about="">
        <dc:format>image/svg+xml</dc:format>
        <dc:type
           rdf:resource="http://purl.org/dc/dcmitype/StillImage" />
      </cc:Work>
    </rdf:RDF>
  </metadata>
  <sodipodi:namedview
     inkscape:window-height="850"
     inkscape:window-width="1440"
     inkscape:pageshadow="2"
     inkscape:pageopacity="0.0"
     guidetolerance="10.0"
     gridtolerance="10.0"
     objecttolerance="10.0"
     borderopacity="1.0"
     bordercolor="#666666"
     pagecolor="#ffffff"
     id="base"
     showgrid="false"
     inkscape:zoom="1.7238806"
     inkscape:cx="89.52796"
     inkscape:cy="138.86664"
     inkscape:window-x="-8"
     inkscape:window-y="-8"
     inkscape:current-layer="svg2" />
  <defs
     id="d">
    <inkscape:perspective
       sodipodi:type="inkscape:persp3d"
       inkscape:vp_x="0 : 134 : 1"
       inkscape:vp_y="0 : 1000 : 0"
       inkscape:vp_z="249 : 134 : 1"
       inkscape:persp3d-origin="124.5 : 89.333333 : 1"
       id="perspective32" />
    <linearGradient
       id="g1">
      <stop
         id="s1"
         style="stop-color:#1e90ff;stop-opacity:1;"
         offset="0" />
      <stop
         id="s2"
         style="stop-color:#1464b2;stop-opacity:1;"
         offset="0.51999998" />
      <stop
         id="s3"
         style="stop-color:#1464b2;stop-opacity:1;"
         offset="0.67000002" />
      <stop
         id="s4"
         style="stop-color:#1e90ff;stop-opacity:1;"
         offset="1" />
    </linearGradient>
    <linearGradient
       id="g2">
      <stop
         id="s5"
         style="stop-color:#783000;stop-opacity:1"
         offset="0" />
      <stop
         id="s6"
         style="stop-color:#000000;stop-opacity:1"
         offset="0.75" />
      <stop
         id="s7"
         style="stop-color:#642800;stop-opacity:1"
         offset="1" />
    </linearGradient>
    <linearGradient
       id="g3">
      <stop
         id="s8"
         style="stop-color:#1e90ff;stop-opacity:1;"
         offset="0" />
      <stop
         id="s9"
         style="stop-color:#1464b2;stop-opacity:1;"
         offset="1" />
    </linearGradient>
    <linearGradient
       x1="48.975147"
       y1="87.787521"
       x2="117.85719"
       y2="77.99485"
       id="g4"
       xlink:href="#g3"
       gradientUnits="userSpaceOnUse" />
    <linearGradient
       x1="116.57422"
       y1="98.310341"
       x2="221.6933"
       y2="94.320732"
       id="g5"
       xlink:href="#g1"
       gradientUnits="userSpaceOnUse" />
    <linearGradient
       x1="-3.7498047"
       y1="144.07323"
       x2="4.318048"
       y2="144.07323"
       id="g6"
       xlink:href="#g2"
       gradientUnits="userSpaceOnUse" />
    <radialGradient
       cx="175.42162"
       cy="98.310333"
       r="72.10807"
       fx="175.42162"
       fy="98.310333"
       id="r1"
       xlink:href="#g3"
       gradientUnits="userSpaceOnUse"
       gradientTransform="matrix(1,0,0,1.1743401,0,-17.13943)" />
    <radialGradient
       cx="67.081421"
       cy="84.330505"
       r="58.420074"
       fx="67.081421"
       fy="84.330505"
       id="r2"
       xlink:href="#g3"
       gradientUnits="userSpaceOnUse"
       gradientTransform="matrix(1,0,0,1.430985,0,-36.345183)" />
    <linearGradient
       x1="48.975147"
       y1="87.787521"
       x2="117.85719"
       y2="77.99485"
       id="linearGradient3172"
       xlink:href="#g3"
       gradientUnits="userSpaceOnUse" />
    <radialGradient
       cx="67.081421"
       cy="84.330505"
       r="58.420074"
       fx="67.081421"
       fy="84.330505"
       id="radialGradient3174"
       xlink:href="#g3"
       gradientUnits="userSpaceOnUse"
       gradientTransform="matrix(1,0,0,1.430985,0,-36.345183)" />
    <linearGradient
       x1="116.57422"
       y1="98.310341"
       x2="221.6933"
       y2="94.320732"
       id="linearGradient3177"
       xlink:href="#g1"
       gradientUnits="userSpaceOnUse" />
    <radialGradient
       cx="175.42162"
       cy="98.310333"
       r="72.10807"
       fx="175.42162"
       fy="98.310333"
       id="radialGradient3179"
       xlink:href="#g3"
       gradientUnits="userSpaceOnUse"
       gradientTransform="matrix(1,0,0,1.1743401,0,-17.13943)" />
    <linearGradient
       x1="-3.7498047"
       y1="144.07323"
       x2="4.318048"
       y2="144.07323"
       id="linearGradient3182"
       xlink:href="#g2"
       gradientUnits="userSpaceOnUse" />
    <inkscape:perspective
       id="perspective2410"
       inkscape:persp3d-origin="372.04724 : 350.78739 : 1"
       inkscape:vp_z="744.09448 : 526.18109 : 1"
       inkscape:vp_y="0 : 1000 : 0"
       inkscape:vp_x="0 : 526.18109 : 1"
       sodipodi:type="inkscape:persp3d" />
    <inkscape:perspective
       id="perspective2412"
       inkscape:persp3d-origin="372.04724 : 350.78739 : 1"
       inkscape:vp_z="744.09448 : 526.18109 : 1"
       inkscape:vp_y="0 : 1000 : 0"
       inkscape:vp_x="0 : 526.18109 : 1"
       sodipodi:type="inkscape:persp3d" />
    <inkscape:perspective
       id="perspective3197"
       inkscape:persp3d-origin="372.04724 : 350.78739 : 1"
       inkscape:vp_z="744.09448 : 526.18109 : 1"
       inkscape:vp_y="0 : 1000 : 0"
       inkscape:vp_x="0 : 526.18109 : 1"
       sodipodi:type="inkscape:persp3d" />
    <inkscape:perspective
       id="perspective3210"
       inkscape:persp3d-origin="372.04724 : 350.78739 : 1"
       inkscape:vp_z="744.09448 : 526.18109 : 1"
       inkscape:vp_y="0 : 1000 : 0"
       inkscape:vp_x="0 : 526.18109 : 1"
       sodipodi:type="inkscape:persp3d" />
  </defs>
  <rect
     width="8.067853"
     height="270.80246"
     rx="4.0339265"
     ry="4.0339265"
     x="-3.7498047"
     y="8.6719856"
     transform="matrix(0.8930085,-0.4500398,0.3218319,0.9467968,0,0)"
     id="re"
     style="fill:url(#linearGradient3182);fill-opacity:1;fill-rule:nonzero;visibility:visible;display:inline;overflow:visible" />
  <path
     d="M 105.3763,25.576935 C 103.07299,-1.1270303 101.84936,26.944524 112.57413,29.319809 C 136.55939,35.416019 161.37648,36.633247 185.99204,34.790163 C 193.50622,34.227541 225.77578,21.701753 226.29992,25.001109 C 221.91421,33.202836 219.09866,73.578078 221.40539,94.100319 C 221.14663,114.01927 244.23479,165.59482 247.02968,182.48973 C 213.29615,162.29662 188.29047,157.269 155.76114,166.9424 C 147.80784,169.30751 128.99496,170.47106 126.39397,160.3204 C 124.59451,155.13796 125.49719,151.18159 124.84849,145.06099 C 122.98959,127.52195 125.92752,152.57848 121.78736,136.13567 C 114.39362,106.77113 107.67961,52.2809 105.3763,25.576935 z"
     id="path3159"
     style="fill:url(#linearGradient3177);fill-opacity:1;fill-rule:evenodd;stroke:url(#radialGradient3179);stroke-width:1;stroke-linecap:butt;stroke-linejoin:bevel;marker-start:none;stroke-miterlimit:4;stroke-dasharray:none;stroke-dashoffset:0;stroke-opacity:1" />
  <path
     d="M 9.1613476,12.296609 C 26.445948,15.515347 55.33847,18.138952 64.333019,14.943221 C 73.327567,11.74749 82.624071,5.5184845 93.24216,2.3209195 C 104.16548,-0.96856497 108.78115,3.2809161 110.34334,13.925293 C 114.20002,50.409952 124.18297,115.39917 125.0015,146.25587 C 118.08086,131.60472 97.3228,134.10033 61.686407,167.42876 C 61.659122,154.97147 63.094905,114.86064 48.860521,87.623245 C 34.626137,60.385849 31.748689,45.420248 24.633846,35.708942 C 17.519003,25.997636 9.7958865,17.90609 9.1613476,12.296609 z"
     id="path2186"
     style="fill:url(#linearGradient3172);fill-opacity:1;fill-rule:evenodd;stroke:url(#radialGradient3174);stroke-width:1;stroke-linecap:butt;stroke-linejoin:bevel;marker-start:none;stroke-miterlimit:4;stroke-dasharray:none;stroke-dashoffset:0;stroke-opacity:1" />
</svg>

<?xml version="1.0"?>
<svg xmlns:rdf="http://www.w3.org/1999/02/22-rdf-syntax-ns#" xmlns="http://www.w3.org/2000/svg" xmlns:cc="http://creativecommons.org/ns#" xmlns:xlink="http://www.w3.org/1999/xlink" xmlns:dc="http://purl.org/dc/elements/1.1/" id="svg2" height="268" width="249" version="1.0">
 <defs id="d">
  <linearGradient id="g3">
   <stop id="s8" stop-color="#1e90ff" offset="0"/>
   <stop id="s9" stop-color="#1464b2" offset="1"/>
  </linearGradient>
  <linearGradient id="linearGradient3172" y2="77.995" xlink:href="#g3" gradientUnits="userSpaceOnUse" x2="117.86" y1="87.788" x1="48.975"/>
  <radialGradient id="radialGradient3174" xlink:href="#g3" gradientUnits="userSpaceOnUse" cy="84.331" cx="67.081" gradientTransform="matrix(1 0 0 1.431 0 -36.345)" r="58.42"/>
  <linearGradient id="linearGradient3177" y2="94.321" gradientUnits="userSpaceOnUse" x2="221.69" y1="98.31" x1="116.57">
   <stop id="s1" stop-color="#1e90ff" offset="0"/>
   <stop id="s2" stop-color="#1464b2" offset="0.52"/>
   <stop id="s3" stop-color="#1464b2" offset="0.67"/>
   <stop id="s4" stop-color="#1e90ff" offset="1"/>
  </linearGradient>
  <radialGradient id="radialGradient3179" xlink:href="#g3" gradientUnits="userSpaceOnUse" cy="98.31" cx="175.42" gradientTransform="matrix(1 0 0 1.1743 0 -17.139)" r="72.108"/>
  <linearGradient id="linearGradient3182" y2="144.07" gradientUnits="userSpaceOnUse" x2="4.318" y1="144.07" x1="-3.7498">
   <stop id="s5" stop-color="#783000" offset="0"/>
   <stop id="s6" offset=".75"/>
   <stop id="s7" stop-color="#642800" offset="1"/>
  </linearGradient>
 </defs>
 <rect id="re" transform="matrix(.89301 -.45004 .32183 .94680 0 0)" rx="4.0339" ry="4.0339" height="270.8" width="8.0679" y="8.672" x="-3.7498" fill="url(#linearGradient3182)"/>
 <path id="path3159" stroke-linejoin="bevel" d="m105.38 25.577c-2.31-26.704-3.53 1.368 7.19 3.743 23.99 6.096 48.81 7.313 73.42 5.47 7.52-0.562 39.79-13.088 40.31-9.789-4.39 8.202-7.2 48.577-4.89 69.099-0.26 19.92 22.82 71.49 25.62 88.39-33.73-20.19-58.74-25.22-91.27-15.55-7.95 2.37-26.77 3.53-29.37-6.62-1.8-5.18-0.89-9.14-1.54-15.26-1.86-17.54 1.08 7.52-3.06-8.92-7.4-29.37-14.11-83.859-16.41-110.56z" fill-rule="evenodd" stroke="url(#radialGradient3179)" fill="url(#linearGradient3177)"/>
 <path id="path2186" stroke-linejoin="bevel" d="m9.1613 12.297c17.285 3.218 46.177 5.842 55.172 2.646s18.291-9.4245 28.909-12.622c10.928-3.2896 15.538 0.9599 17.098 11.604 3.86 36.485 13.84 101.48 14.66 132.34-6.92-14.66-27.677-12.16-63.314 21.17-0.027-12.46 1.409-52.57-12.825-79.807-14.235-27.237-17.112-42.203-24.227-51.914s-14.838-17.803-15.473-23.412z" fill-rule="evenodd" stroke="url(#radialGradient3174)" fill="url(#linearGradient3172)"/>
 <metadata>
  <rdf:RDF>
   <cc:Work>
    <dc:format>image/svg+xml</dc:format>
    <dc:type rdf:resource="http://purl.org/dc/dcmitype/StillImage"/>
    <cc:license rdf:resource="http://creativecommons.org/licenses/publicdomain/"/>
    <dc:publisher>
     <cc:Agent rdf:about="http://openclipart.org/">
      <dc:title>Openclipart</dc:title>
     </cc:Agent>
    </dc:publisher>
   </cc:Work>
   <cc:License rdf:about="http://creativecommons.org/licenses/publicdomain/">
    <cc:permits rdf:resource="http://creativecommons.org/ns#Reproduction"/>
    <cc:permits rdf:resource="http://creativecommons.org/ns#Distribution"/>
    <cc:permits rdf:resource="http://creativecommons.org/ns#DerivativeWorks"/>
   </cc:License>
  </rdf:RDF>
 </metadata>
</svg>
